svgs/keypass.svg

<svg width="192" height="192" viewBox="0 0 192 192" fill="none" xmlns="http://www.w3.org/2000/svg">
<path d="M29 29.7893H47.2698L57.7101 22H130.79L141.23 29.7893H162.11V89.5099C162.11 149.206 94.2501 170 94.2501 170C94.2501 170 29 149.374 29 89.5099V29.7893Z" stroke="black" stroke-width="12" stroke-linecap="round" stroke-linejoin="round"/>
<path d="M68.1501 76.5255H120.35V105.087C120.35 117.326 106.554 131.051 94.2501 131.051C81.9466 131.051 68.1501 117.326 68.1501 105.087V76.5255Z" stroke="black" stroke-width="12" stroke-linecap="round" stroke-linejoin="round"/>
<path d="M94.2501 94.7008V107.883" stroke="black" stroke-width="12" stroke-linecap="round" stroke-linejoin="round"/>
<path d="M75.9799 76.5255V65.938C76.4879 61.2764 78.5786 56.9299 81.9033 53.6232C85.228 50.3165 89.5859 48.2495 94.2501 47.7668C98.9149 48.2496 103.273 50.3172 106.598 53.6246C109.923 56.9321 112.013 61.2795 112.52 65.9418V76.5293" stroke="black" stroke-width="12" stroke-linecap="round" stroke-linejoin="round"/>
</svg>

<svg width="192" height="192" viewBox="0 0 192 192" fill="none" xmlns="http://www.w3.org/2000/svg"><path d="M29 29.79h18.27L57.71 22h73.08l10.44 7.79h20.88v59.72c0 59.696-67.86 80.49-67.86 80.49S29 149.374 29 89.51V29.79Z" stroke="#000" stroke-width="12" stroke-linecap="round" stroke-linejoin="round"/><path d="M68.15 76.525h52.2v28.562c0 12.239-13.796 25.964-26.1 25.964-12.303 0-26.1-13.725-26.1-25.964V76.525ZM94.25 94.7v13.183" stroke="#000" stroke-width="12" stroke-linecap="round" stroke-linejoin="round"/><path d="M75.98 76.525V65.938a20.501 20.501 0 0 1 18.27-18.171 20.502 20.502 0 0 1 18.27 18.175v10.587" stroke="#000" stroke-width="12" stroke-linecap="round" stroke-linejoin="round"/></svg>
